X:271
T:Fire on the Mountain
M:4/4
L:1/8
R:
K:A
cd|:efed cAcd|efae fecd|efed cBAc|BABc ABcd|
|efed cAcd|efae fecd|efed cBAc|1 BABc A2cd:|2 BABc A2 A2|
K:D
|:ABAG FDFG|ABAG FDFG|ABAG FEDF|EDEF D2 FG|
|ABAG FDFG|ABAG FEDF|EDEF D2e2| efed cBAc|BABc A2 cd:|
